svgs/sharp-light/magnifying-glass-plus.svg

<svg xmlns="http://www.w3.org/2000/svg" viewBox="0 0 512 512"><!--! Font Awesome Pro 6.6.0 by @fontawesome - https://fontawesome.com License - https://fontawesome.com/license (Commercial License) Copyright 2024 Fonticons, Inc. --><path d="M208 32a176 176 0 1 1 0 352 176 176 0 1 1 0-352zm0 384c51.7 0 99-18.8 135.3-50L487.9 510.5l22.6-22.6L366 343.3c31.2-36.4 50-83.7 50-135.3C416 93.1 322.9 0 208 0S0 93.1 0 208S93.1 416 208 416zm16-304l-32 0 0 16 0 64-64 0-16 0 0 32 16 0 64 0 0 64 0 16 32 0 0-16 0-64 64 0 16 0 0-32-16 0-64 0 0-64 0-16z"/></svg>

<svg xmlns="http://www.w3.org/2000/svg" viewBox="0 0 512 512"><!--! Font Awesome Pro 6.4.0 by @fontawesome - https://fontawesome.com License - https://fontawesome.com/license (Commercial License) Copyright 2023 Fonticons, Inc. --><path d="M208 32a176 176 0 1 1 0 352 176 176 0 1 1 0-352zm0 384c51.7 0 99-18.8 135.3-50L487.9 510.5l22.6-22.6L366 343.3c31.2-36.4 50-83.7 50-135.3C416 93.1 322.9 0 208 0S0 93.1 0 208S93.1 416 208 416zm16-304H192v16 64H128 112v32h16 64v64 16h32V288 224h64 16V192H288 224V128 112z"/></svg>
